images/icon/card-subscription.svg

<svg width="21" height="21" viewBox="0 0 21 21" fill="none" xmlns="http://www.w3.org/2000/svg">
<path d="M17.835 13.1045C18.4839 11.5628 18.6332 9.85647 18.2621 8.22548C17.8909 6.5945 17.018 5.12084 15.7659 4.0117C14.5139 2.90256 12.9457 2.21372 11.2818 2.04201C9.618 1.87031 7.94218 2.22438 6.49 3.05445L5.498 1.31745C7.01563 0.450066 8.73419 -0.00418222 10.4822 2.90165e-05C12.2302 0.00424025 13.9466 0.466764 15.46 1.34145C19.95 3.93345 21.67 9.48345 19.577 14.1115L20.919 14.8855L16.754 17.0995L16.589 12.3855L17.835 13.1045V13.1045ZM3.085 6.89845C2.43614 8.44015 2.28678 10.1464 2.65792 11.7774C3.02905 13.4084 3.90201 14.8821 5.15407 15.9912C6.40613 17.1003 7.97432 17.7892 9.63816 17.9609C11.302 18.1326 12.9778 17.7785 14.43 16.9485L15.422 18.6855C13.9044 19.5528 12.1858 20.0071 10.4378 20.0029C8.68978 19.9987 6.97344 19.5361 5.46 18.6615C0.97 16.0695 -0.75 10.5195 1.343 5.89145L0 5.11845L4.165 2.90445L4.33 7.61845L3.084 6.89945L3.085 6.89845ZM11.875 12.8295L9.044 10.0015L6.216 12.8295L4.802 11.4155L9.045 7.17345L11.874 10.0015L14.703 7.17345L16.117 8.58745L11.874 12.8295H11.875Z" fill="#29C4A8"/>
</svg>

<svg width="21" height="21" fill="none" xmlns="http://www.w3.org/2000/svg"><path d="M17.835 13.104A8.001 8.001 0 006.49 3.054l-.992-1.737a9.996 9.996 0 019.962.024c4.49 2.592 6.21 8.142 4.117 12.77l1.342.774-4.165 2.214-.165-4.713 1.246.719zM3.085 6.898a8 8 0 0011.345 10.05l.992 1.738a9.997 9.997 0 01-9.962-.024C.97 16.07-.75 10.52 1.343 5.892L0 5.117l4.165-2.214.165 4.714L3.084 6.9h.001zm8.79 5.931l-2.831-2.828-2.828 2.829-1.414-1.415 4.243-4.242 2.829 2.829 2.829-2.829 1.414 1.414-4.243 4.242h.001z" fill="#29C4A8"/></svg>
